X:5918
T:Gan Ainm
R:strathspey
S:Natalie McMasters
H:
N:
D:Solo Album #1
Z:Adrian Scahill
M:4/4
L:1/8
K:G
E<A, ED EA,A,B,|CEDC B,<G, G,F|E<A, ED EA,A,C|B,G,B,D E<A,AF|\
E<A, ED EA,A,B,|CEDC B,<G, G,B,|A,B,CD EC E<G|B,G, (3B,CD E<A,A,g||
f>d eA cBAa|g>e d<g B<G Gg|f>d e<A cABG|Aaag ageg|\
f<d eA cdea|g>e d<g BGGB|EA (3AAA cABG|Af (3ggg a2 aF||\
